icon-themes/sifr_svg/cmd/sc_menubar.svg

<svg viewBox="0 0 16 16" xmlns="http://www.w3.org/2000/svg"><path d="m15 14h-14v-2-5h2 1v2h-1v3h10v-3h-1v-2h3v2 3zm0-8h-3v-1h-8v1h-3v-4h14zm-4 2c0 .30945-.09029.55232-.28125.75l-1.84375 2.25h-1.7050781c-.9581337-1.0834649-1.0680429-1.1665323-1.8886719-2.25-.19095-.19768-.28125-.44055-.28125-.75v-.5859375-.4140625h1c.25689 0 .52846.12983.71875.3125l.28125.5097656v-1.8222656h2v1.8222656l.28125-.5097656c.19029-.18267.46186-.3125.71875-.3125h1v.4140625z" fill="#555753"/></svg>

<svg xmlns="http://www.w3.org/2000/svg" viewBox="0 0 16 16">
  <path
     style="fill:#555753"
     d="M 15,14 H 1 V 12 7 H 3 4 V 9 H 3 v 3 H 13 V 9 H 12 V 7 h 3 v 2 3 z M 15,6 H 12 V 5 H 4 V 6 H 1 V 2 h 14 z m -4,2 c 0,0.30945 -0.09029,0.55232 -0.28125,0.75 L 8.875,11 H 7.1699219 C 6.2117882,9.9165351 6.101879,9.8334677 5.28125,8.75 5.0903,8.55232 5,8.30945 5,8 V 7.4140625 7 H 6 C 6.25689,7 6.52846,7.12983 6.71875,7.3125 L 7,7.8222656 V 6 H 9 V 7.8222656 L 9.28125,7.3125 C 9.47154,7.12983 9.74311,7 10,7 h 1 v 0.4140625 z"
     />
</svg>
